_site/img/icons/codepen.svg

<svg xmlns="http://www.w3.org/2000/svg" viewBox="0 0 512 512" fill="#f2f2f2"><path d="M427 201.9c-.6-4.2-2.9-8-6.4-10.3L264.2 87.3c-4.9-3.3-11.4-3.3-16.3 0L91.4 191.6c-4 2.7-6.5 7.4-6.5 12.2v104.3c0 4.8 2.5 9.6 6.5 12.2l156.4 104.3c4.9 3.3 11.4 3.3 16.3 0l156.5-104.2c4-2.6 6.6-7.4 6.6-12.2V203.9c-.1-.7-.1-1.3-.2-2 0-.2.1.7 0 0zm-156.3-74.8l115.2 76.8-51.5 34.4-63.8-42.7v-68.5zm-29.4 0v68.6l-63.8 42.7L126 204l115.3-76.9zm-127 104.3l36.8 24.6-36.8 24.6v-49.2zm127 153.5l-115.2-76.8 51.5-34.4 63.8 42.6v68.6zm14.7-94.1L204 256l52-34.8 52 34.8-52 34.8zm14.7 94.1v-68.6l63.8-42.6 51.5 34.4-115.3 76.8zm127-104.3L360.9 256l36.8-24.6v49.2z"/></svg>

<svg version="1.1" xmlns="http://www.w3.org/2000/svg" xmlns:xlink="http://www.w3.org/1999/xlink" viewBox="0 0 512 512" fill="#f2f2f2"><path d="M427 201.9c-0.6-4.2-2.9-8-6.4-10.3L264.2 87.3c-4.9-3.3-11.4-3.3-16.3 0L91.4 191.6c-4 2.7-6.5 7.4-6.5 12.2v104.3c0 4.8 2.5 9.6 6.5 12.2l156.4 104.3c4.9 3.3 11.4 3.3 16.3 0L420.6 320.4c4-2.6 6.6-7.4 6.6-12.2V203.9C427.1 203.2 427.1 202.6 427 201.9 427 201.7 427.1 202.6 427 201.9zM270.7 127.1l115.2 76.8 -51.5 34.4 -63.8-42.7V127.1zM241.3 127.1v68.6l-63.8 42.7 -51.5-34.4L241.3 127.1zM114.3 231.4l36.8 24.6 -36.8 24.6V231.4zM241.3 384.9L126.1 308.1l51.5-34.4 63.8 42.6V384.9zM256 290.8l-52-34.8 52-34.8 52 34.8L256 290.8zM270.7 384.9V316.3l63.8-42.6 51.5 34.4L270.7 384.9zM397.7 280.6l-36.8-24.6 36.8-24.6V280.6z"/></svg>
